MonoIcons/scalable/status/media-playlist-consecutive-symbolic.svg

<?xml version="1.0" encoding="UTF-8"?>
<svg height="16px" viewBox="0 0 16 16" width="16px" xmlns="http://www.w3.org/2000/svg">
    <path d="m 12 1 v 2 h -12 v 2 h 12 v 2 h 1 v -0.007812 c 0.265625 0.003906 0.519531 -0.101563 0.707031 -0.285157 l 2 -2 c 0.390625 -0.390625 0.390625 -1.023437 0 -1.414062 l -2 -2 c -0.1875 -0.183594 -0.441406 -0.289063 -0.707031 -0.285157 v -0.007812 z m 0 8 v 2 h -12 v 2 h 12 v 2 h 1 v -0.007812 c 0.265625 0.003906 0.519531 -0.101563 0.707031 -0.285157 l 2 -2 c 0.390625 -0.390625 0.390625 -1.023437 0 -1.414062 l -2 -2 c -0.1875 -0.183594 -0.441406 -0.289063 -0.707031 -0.285157 v -0.007812 z m 0 0" fill="#2e3436"/>
</svg>

<svg width="16" height="16" viewBox="0 0 16 16" fill="none" xmlns="http://www.w3.org/2000/svg">
<path d="M12 1V3H0V5H12V7H13V6.99219C13.2656 6.99609 13.5195 6.89062 13.707 6.70703L15.707 4.70703C16.0977 4.31641 16.0977 3.68359 15.707 3.29297L13.707 1.29297C13.5195 1.10937 13.2656 1.00391 13 1.00781V1H12ZM12 9V11H0V13H12V15H13V14.9922C13.2656 14.9961 13.5195 14.8906 13.707 14.707L15.707 12.707C16.0977 12.3164 16.0977 11.6836 15.707 11.293L13.707 9.29297C13.5195 9.10937 13.2656 9.00391 13 9.00781V9H12Z" fill="#2E3436"/>
</svg>
